src/components/Icon/utils/svgsOptimized/italic.svg

<?xml version="1.0" encoding="utf-8"?><svg width="24" height="24" xmlns="http://www.w3.org/2000/svg" viewBox="0 0 24 24"><path d="M15.42 6h-5.24c-.18 0-.33.15-.33.33v.53c0 .18.15.33.33.33h2.01l-1.92 9.6H8.58c-.18 0-.33.15-.33.33v.53c0 .18.15.33.33.33h5.33c.18 0 .33-.15.33-.33v-.53c0-.18-.15-.33-.33-.33H11.8l1.92-9.59h1.69c.18 0 .33-.15.33-.33v-.54c0-.18-.15-.33-.33-.33h.01Z"/></svg>

<svg width="24" height="24" viewBox="0 0 24 24"  xmlns="http://www.w3.org/2000/svg">
<path d="M15.42 6H10.18C10 6 9.85 6.15 9.85 6.33V6.86C9.85 7.04 10 7.19 10.18 7.19H12.19L10.27 16.79H8.58C8.4 16.79 8.25 16.94 8.25 17.12V17.65C8.25 17.83 8.4 17.98 8.58 17.98H13.91C14.09 17.98 14.24 17.83 14.24 17.65V17.12C14.24 16.94 14.09 16.79 13.91 16.79H11.8L13.72 7.2H15.41C15.59 7.2 15.74 7.05 15.74 6.87V6.33C15.74 6.15 15.59 6 15.41 6H15.42Z" />
</svg>
